public/bird4.svg

<svg width="649" height="618" fill="none" xmlns="http://www.w3.org/2000/svg"><path d="M223.103 260.153s-2.398-28.777 34.078-25.243c0 0 108.546 7.068 215.451 174.557 0 0 42.913 63.865 35.592 107.914-14.262 85.953-129.75 53.39-129.75 53.39-27.767 37.99-63.991 47.204-101.982 41.651-69.292-10.224-73.079-68.914-73.079-68.914-40.515 25.622-89.108 9.087-89.108 9.087-58.69-23.476-27.263-51.496-27.263-51.496 27.768-20.573 73.71-72.069 73.71-72.069s63.234-89.613 62.351-168.877z" fill="#7EB9FF"/><path d="M454.709 523.321s37.738 3.913 52.758-2.524c0 0-6.816 78.001-129.119 49.981 0 0-63.865 85.196-155.498 15.399 0 0 74.846 48.467 147.546-40.516 0 .127 72.07 13.884 84.313-22.34z" fill="#005EEB"/><path d="M222.974 243.356c.687 2.626 3.277 3.452 4.897 3.551 1.675.104 4.075-.407 5.356-2.386 3.036-4.691 7.613-7.076 13.205-7.879 5.667-.814 12.261.026 18.939 1.761 13.345 3.466 26.269 10.3 31.203 13.061 1.034.578 2.267.783 3.282.815 1.028.033 2.217-.101 3.232-.527 9.197-3.859 20.091-3.449 30.398-1.224 10.266 2.215 19.647 6.166 25.618 9.038 2.06.991 4.171.265 5.382-1.043 1.231-1.328 1.789-3.562.435-5.537-20.674-30.171-52.671-40.032-65.892-42.937 7.647-4.355 17.326-6.894 25.116-8.328 2.546-.469 3.743-2.675 3.804-4.525.062-1.883-1.063-4.252-3.792-4.633-30.84-4.303-53.357 3.879-62.196 7.937 1.83-15.027 9.042-25.069 14.487-30.685 1.666-1.718 1.538-4.075.797-5.625-.749-1.568-2.661-3.286-5.258-2.546-28.311 8.072-38.435 35.141-41.234 44.9-8.01-5.784-15.316-7.94-20.56-8.652-1.153-.157-2.249.14-3.117.808-.826.635-1.32 1.501-1.568 2.332-.481 1.603-.213 3.654 1.183 5.13 3.738 3.949 7.083 10.346 9.89 17.365 2.783 6.957 4.937 14.265 6.393 19.829z" fill="#FF009F" stroke="#000" stroke-width="5" stroke-linejoin="round"/><path d="M196.175 422.189s-47.031 13.377-111.16-26.92c0 0-35.32-22.25-23.05 6.555 0 0 25.61 78.302 110.094 54.191" fill="#7EB9FF"/><path d="M173.528 459.433c1.654-.712 2.548-2.579 2.035-4.379-.563-1.913-2.619-3.049-4.481-2.517-33.62 9.624-61.576 3.875-82.96-16.964-16.159-15.679-22.494-34.643-22.543-34.757l-.147-.341c-3.279-7.615-2.066-9.35-2.066-9.35 1.52-1.328 10.74 1.574 19.885 7.337 64.814 40.676 111.98 27.915 114.062 27.288 1.862-.532 2.928-2.608 2.365-4.521-.562-1.914-2.619-3.049-4.481-2.517-.6.123-46.443 12.314-108.208-26.44-4.995-3.104-21.584-12.803-28.396-6.772-5.292 4.704-1.292 14.299.176 17.709.66 2.141 7.534 21.143 24.255 37.522 16.207 15.793 44.942 31.85 90.222 18.958.062-.161.172-.208.282-.256z" fill="#000"/><path d="M446.335 423.442s46.238 18.821 115.093-13.96c0 0 37.93-18.11 22.662 9.223 0 0-33.672 75.204-116.723 41.312" fill="#7EB9FF"/><path d="M465.542 463.263a3.71 3.71 0 01-1.623-4.609c.758-1.845 2.951-2.74 4.781-1.992 33.047 13.515 61.89 11.024 85.587-7.297 17.897-13.776 26.187-31.975 26.248-32.083l.182-.323c4.072-7.223 3.017-9.096 3.017-9.096-1.405-1.502-11.017.324-20.839 5.015-69.586 33.08-116.021 14.858-118.065 13.99-1.83-.748-2.702-2.944-1.943-4.789.759-1.846 2.952-2.74 4.782-1.993.594.194 45.747 17.693 112.061-13.823 5.359-2.518 23.1-10.275 29.39-3.461 4.886 5.311-.112 14.427-1.936 17.661-.88 2.06-9.718 20.234-28.255 34.645-17.958 13.884-48.613 26.577-93.128 8.443-.046-.168-.152-.228-.259-.288z" fill="#000"/><ellipse cx="320.209" cy="360.968" rx="52.38" ry="75.73" fill="#000"/><mask id="prefix__a" maskUnits="userSpaceOnUse" x="171.953" y="296.645" width="115" height="96" fill="#000"><path fill="#fff" d="M171.953 296.645h115v96h-115z"/><path fill-rule="evenodd" clip-rule="evenodd" d="M241.997 373.093c-6.819 8.822-16.752 14.378-27.81 14.378-20.564 0-37.234-19.213-37.234-42.913 0-23.7 16.67-42.913 37.234-42.913 19.096 0 34.835 16.568 36.984 37.913 1.606 2.571 3.75 4.695 6.561 5.632 1.527.509 3.08.941 4.612 1.307 1.429.341 1.499 3.985.05 4.227-1.226.204-1.37 1.914-.196 2.322 7.121 2.477 16.615 5.84 18.253 6.659 2.524 1.262 0 5.049-11.991 4.418-5.695-.3-10.338-.318-13.61-.239-1.579.038-2.096 1.969-.782 2.845 1.285.856.835 2.859-.689 3.103-2.669.428-5.436.919-6.376 1.232-.546.183-2.48.974-5.006 2.029z"/></mask><path fill-rule="evenodd" clip-rule="evenodd" d="M241.997 373.093c-6.819 8.822-16.752 14.378-27.81 14.378-20.564 0-37.234-19.213-37.234-42.913 0-23.7 16.67-42.913 37.234-42.913 19.096 0 34.835 16.568 36.984 37.913 1.606 2.571 3.75 4.695 6.561 5.632 1.527.509 3.08.941 4.612 1.307 1.429.341 1.499 3.985.05 4.227-1.226.204-1.37 1.914-.196 2.322 7.121 2.477 16.615 5.84 18.253 6.659 2.524 1.262 0 5.049-11.991 4.418-5.695-.3-10.338-.318-13.61-.239-1.579.038-2.096 1.969-.782 2.845 1.285.856.835 2.859-.689 3.103-2.669.428-5.436.919-6.376 1.232-.546.183-2.48.974-5.006 2.029z" fill="#82A6B8"/><path d="M241.997 373.093l-1.927-4.614c-.8.334-1.499.87-2.029 1.556l3.956 3.058zm9.174-33.535l-4.975.501c.077.764.328 1.499.735 2.15l4.24-2.651zm6.561 5.632l-1.581 4.744 1.581-4.744zm4.612 1.307l1.16-4.864-1.16 4.864zm.05 4.227l.822 4.932-.822-4.932zm-.196 2.322l1.642-4.723-1.642 4.723zm18.253 6.659l-2.236 4.472 2.236-4.472zm-11.991 4.418l-.263 4.993.263-4.993zm-13.61-.239l-.12-4.999.12 4.999zm-.782 2.845l-2.773 4.16 2.773-4.16zm-.689 3.103l-.792-4.937.792 4.937zm-6.376 1.232l1.582 4.744-1.582-4.744zm-8.962-1.029c-6.01 7.776-14.557 12.436-23.854 12.436v10c12.82 0 24.138-6.452 31.766-16.321l-7.912-6.115zm-23.854 12.436c-17.159 0-32.234-16.284-32.234-37.913h-10c0 25.772 18.266 47.913 42.234 47.913v-10zm-32.234-37.913c0-21.629 15.075-37.913 32.234-37.913v-10c-23.968 0-42.234 22.141-42.234 47.913h10zm32.234-37.913c15.953 0 30.055 14.007 32.009 33.414l9.95-1.001c-2.344-23.283-19.719-42.413-41.959-42.413v10zm45.126 33.802c-1.334-.445-2.664-1.557-3.902-3.539l-8.48 5.301c1.975 3.159 4.932 6.296 9.22 7.725l3.162-9.487zm4.191 1.186a49.962 49.962 0 01-4.191-1.186l-3.162 9.487a59.836 59.836 0 005.033 1.426l2.32-9.727zm-.288 14.023c2.62-.437 3.972-2.353 4.526-3.56.566-1.232.721-2.505.706-3.525-.016-1.031-.213-2.258-.765-3.431-.519-1.104-1.751-2.927-4.179-3.507l-2.32 9.727c-1.714-.409-2.401-1.648-2.55-1.965-.182-.387-.184-.624-.185-.671-.001-.036-.01-.331.206-.801.204-.445 1.022-1.815 2.917-2.131l1.644 9.864zm.624-7.333c3.7 1.287 3.278 6.683-.624 7.333l-1.644-9.864c-6.353 1.059-7.063 9.873-1.017 11.976l3.285-9.445zm18.847 6.91c-1.153-.576-4.305-1.745-7.608-2.938-3.495-1.263-7.67-2.73-11.239-3.972l-3.285 9.445a1065.13 1065.13 0 0111.127 3.932c1.723.622 3.255 1.186 4.447 1.64.597.227 1.092.421 1.474.576.19.078.341.141.454.191l.158.07 4.472-8.944zm-14.49 13.883c6.313.332 11.101-.41 14.162-2.139 1.413-.799 3.55-2.456 3.926-5.306.449-3.4-1.853-5.566-3.598-6.438l-4.472 8.944c-.483-.241-2.155-1.461-1.844-3.815.239-1.805 1.469-2.318 1.067-2.091-.568.321-3.037 1.157-8.715.858l-.526 9.987zm-13.226-.234c3.145-.076 7.66-.059 13.226.234l.526-9.987c-5.824-.306-10.594-.326-13.993-.244l.241 9.997zm1.871-6.313c1.183.789 1.743 2.317 1.357 3.736-.396 1.453-1.722 2.541-3.228 2.577l-.241-9.997c-3.085.075-5.46 2.147-6.18 4.794-.711 2.613.247 5.545 2.745 7.21l5.547-8.32zm-2.671 12.2c5.923-.95 7.816-8.77 2.671-12.2l-5.547 8.32c-2.576-1.717-1.583-5.533 1.292-5.994l1.584 9.874zm-5.586 1.039c-.018.006.126-.039.525-.128.359-.08.818-.173 1.358-.275a143.55 143.55 0 013.703-.636l-1.584-9.874c-1.356.218-2.765.456-3.971.683-1.082.204-2.348.461-3.194.743l3.163 9.487zm-4.66 1.898c1.256-.525 2.354-.979 3.199-1.322a83.951 83.951 0 011.36-.539c.087-.033.114-.042.101-.037l-3.163-9.487c-.772.257-2.941 1.151-5.352 2.158l3.855 9.227z" fill="#000" mask="url(#prefix__a)"/><ellipse cx="211.032" cy="344.558" rx="34.078" ry="42.913" fill="#C7EFFF"/><ellipse cx="196.96" cy="348.13" rx="13.56" ry="25.722" transform="rotate(-3.285 196.96 348.13)" fill="#000"/><path d="M192.527 356.586c1.549.055 2.698-1.193 3.403-2.553.745-1.434 1.214-3.365 1.289-5.459.074-2.094-.258-4.053-.898-5.536-.608-1.406-1.665-2.733-3.215-2.788-1.549-.055-2.698 1.193-3.404 2.553-.744 1.434-1.214 3.365-1.288 5.459-.074 2.094.258 4.053.898 5.536.608 1.406 1.665 2.733 3.215 2.788z" fill="#1ECDFD" stroke="#000" stroke-width="2"/><path d="M210.879 489.838l.013.002c5.759 1.185 11.765-.021 16.629-3.226 2.15-1.416 3.998-3.171 5.362-5.216 9.575-13.031 29.724-47.894 8.68-91.081-3.927-8.214-12.757-12.857-21.725-12.061l-.019.002-.019.002c-27.041 2.752-94.838 10.763-135.276 26.473l-.066.025-.064.029c-.748.331-1.796.816-2.687 1.403-4.234 2.789-6.614 7.59-6.596 12.648v.066l.003.066c.243 5.111 2.858 9.724 7.218 12.419l.013.008.012.008c11.929 7.213 32.928 19.47 56.469 31.088 23.495 11.595 49.72 22.653 72.053 27.345z" fill="#FFB6E9" stroke="#000" stroke-width="6"/><path d="M223.978 394.767c-.196-3.293-4.566-5.713-9.762-5.404-5.196.309-9.25 3.229-9.054 6.522.196 3.293 4.566 5.712 9.762 5.404 5.196-.309 9.25-3.229 9.054-6.522z" fill="#000"/><mask id="prefix__b" maskUnits="userSpaceOnUse" x="242.894" y="284.016" width="135" height="154" fill="#000"><path fill="#fff" d="M242.894 284.016h135v154h-135z"/><path d="M372.736 360.959c0 39.733-27.947 71.943-62.421 71.943-34.474 0-62.421-32.21-62.421-71.943s27.947-71.943 62.421-71.943c34.474 0 62.421 32.21 62.421 71.943z"/></mask><path d="M372.736 360.959c0 39.733-27.947 71.943-62.421 71.943-34.474 0-62.421-32.21-62.421-71.943s27.947-71.943 62.421-71.943c34.474 0 62.421 32.21 62.421 71.943z" fill="#82A6B8"/><path d="M367.736 360.959c0 37.661-26.351 66.943-57.421 66.943v10c37.879 0 67.421-35.139 67.421-76.943h-10zm-57.421 66.943c-31.07 0-57.421-29.282-57.421-66.943h-10c0 41.804 29.543 76.943 67.421 76.943v-10zm-57.421-66.943c0-37.662 26.351-66.943 57.421-66.943v-10c-37.878 0-67.421 35.138-67.421 76.943h10zm57.421-66.943c31.07 0 57.421 29.281 57.421 66.943h10c0-41.805-29.542-76.943-67.421-76.943v10z" fill="#000" mask="url(#prefix__b)"/><ellipse cx="305.025" cy="360.959" rx="57.131" ry="71.943" fill="#C7EFFF"/><ellipse cx="277.533" cy="361.258" rx="22.733" ry="43.123" transform="rotate(.342 277.533 361.258)" fill="#000"/><path d="M267.204 372.93c2.11-.02 3.703-1.801 4.705-3.967 1.038-2.242 1.637-5.26 1.605-8.534-.032-3.273-.689-6.279-1.77-8.5-1.044-2.146-2.671-3.896-4.78-3.876-2.11.02-3.703 1.802-4.705 3.967-1.038 2.242-1.637 5.261-1.605 8.534.032 3.273.688 6.28 1.769 8.501 1.045 2.146 2.672 3.896 4.781 3.875z" fill="#1ECDFD" stroke="#000" stroke-width="2"/></svg>

<svg width="649" height="618" viewBox="0 0 649 618" fill="none" xmlns="http://www.w3.org/2000/svg">
<g clip-path="url(#clip0_2591_501)">
<path d="M223.103 260.153C223.103 260.153 220.705 231.376 257.181 234.91C257.181 234.91 365.727 241.978 472.632 409.467C472.632 409.467 515.545 473.332 508.224 517.381C493.962 603.334 378.474 570.771 378.474 570.771C350.707 608.761 314.483 617.975 276.492 612.422C207.2 602.198 203.413 543.508 203.413 543.508C162.898 569.13 114.305 552.595 114.305 552.595C55.6144 529.119 87.0421 501.099 87.0421 501.099C114.81 480.526 160.752 429.03 160.752 429.03C160.752 429.03 223.986 339.417 223.103 260.153Z" fill="#7EB9FF"/>
<path d="M454.709 523.321C454.709 523.321 492.447 527.234 507.467 520.797C507.467 520.797 500.651 598.798 378.348 570.778C378.348 570.778 314.483 655.974 222.85 586.177C222.85 586.177 297.696 634.644 370.396 545.661C370.396 545.788 442.466 559.545 454.709 523.321Z" fill="#005EEB"/>
<path d="M222.974 243.356C223.661 245.982 226.251 246.808 227.871 246.907C229.546 247.011 231.946 246.5 233.227 244.521C236.263 239.83 240.84 237.445 246.432 236.642C252.099 235.828 258.693 236.668 265.371 238.403C278.716 241.869 291.64 248.703 296.574 251.464C297.608 252.042 298.841 252.247 299.856 252.279C300.884 252.312 302.073 252.178 303.088 251.752C312.285 247.893 323.179 248.303 333.486 250.528C343.752 252.743 353.133 256.694 359.104 259.566C361.164 260.557 363.275 259.831 364.486 258.523C365.717 257.195 366.275 254.961 364.921 252.986C344.247 222.815 312.25 212.954 299.029 210.049C306.676 205.694 316.355 203.155 324.145 201.721C326.691 201.252 327.888 199.046 327.949 197.196C328.011 195.313 326.886 192.944 324.157 192.563C293.317 188.26 270.8 196.442 261.961 200.5C263.791 185.473 271.003 175.431 276.448 169.815C278.114 168.097 277.986 165.74 277.245 164.19C276.496 162.622 274.584 160.904 271.987 161.644C243.676 169.716 233.552 196.785 230.753 206.544C222.743 200.76 215.437 198.604 210.193 197.892C209.04 197.735 207.944 198.032 207.076 198.7C206.25 199.335 205.756 200.201 205.508 201.032C205.027 202.635 205.295 204.686 206.691 206.162C210.429 210.111 213.774 216.508 216.581 223.527C219.364 230.484 221.518 237.792 222.974 243.356Z" fill="#FF009F" stroke="black" stroke-width="5" stroke-linejoin="round"/>
<path d="M196.175 422.189C196.175 422.189 149.144 435.566 85.0155 395.269C85.0155 395.269 49.6948 373.019 61.9651 401.824C61.9651 401.824 87.5742 480.126 172.059 456.015" fill="#7EB9FF"/>
<path d="M173.528 459.433C175.182 458.721 176.076 456.854 175.563 455.054C175 453.141 172.944 452.005 171.082 452.537C137.462 462.161 109.506 456.412 88.1211 435.573C71.963 419.894 65.6278 400.93 65.5788 400.816C65.5299 400.702 65.481 400.589 65.432 400.475C62.1534 392.86 63.3665 391.125 63.3665 391.125C64.8857 389.797 74.1058 392.699 83.2512 398.462C148.065 439.138 195.231 426.377 197.313 425.75C199.175 425.218 200.241 423.142 199.678 421.229C199.116 419.315 197.059 418.18 195.197 418.712C194.597 418.835 148.754 431.026 86.9891 392.272C81.994 389.168 65.4046 379.469 58.593 385.5C53.3006 390.204 57.3008 399.799 58.7689 403.209C59.4292 405.35 66.3032 424.352 83.0244 440.731C99.2314 456.524 127.966 472.581 173.246 459.689C173.308 459.528 173.418 459.481 173.528 459.433Z" fill="black"/>
<path d="M446.335 423.442C446.335 423.442 492.573 442.263 561.428 409.482C561.428 409.482 599.358 391.372 584.09 418.705C584.09 418.705 550.418 493.909 467.367 460.017" fill="#7EB9FF"/>
<path d="M465.542 463.263C463.94 462.36 463.22 460.391 463.919 458.654C464.677 456.809 466.87 455.914 468.7 456.662C501.747 470.177 530.59 467.686 554.287 449.365C572.184 435.589 580.474 417.39 580.535 417.282C580.595 417.174 580.656 417.066 580.717 416.959C584.789 409.736 583.734 407.863 583.734 407.863C582.329 406.361 572.717 408.187 562.895 412.878C493.309 445.958 446.874 427.736 444.83 426.868C443 426.12 442.128 423.924 442.887 422.079C443.646 420.233 445.839 419.339 447.669 420.086C448.263 420.28 493.416 437.779 559.73 406.263C565.089 403.745 582.83 395.988 589.12 402.802C594.006 408.113 589.008 417.229 587.184 420.463C586.304 422.523 577.466 440.697 558.929 455.108C540.971 468.992 510.316 481.685 465.801 463.551C465.755 463.383 465.649 463.323 465.542 463.263Z" fill="black"/>
<ellipse cx="320.209" cy="360.968" rx="52.3796" ry="75.7295" fill="black"/>
<mask id="path-9-outside-1_2591_501" maskUnits="userSpaceOnUse" x="171.953" y="296.645" width="115" height="96" fill="black">
<rect fill="white" x="171.953" y="296.645" width="115" height="96"/>
<path fill-rule="evenodd" clip-rule="evenodd" d="M241.997 373.093C235.178 381.915 225.245 387.471 214.187 387.471C193.623 387.471 176.953 368.258 176.953 344.558C176.953 320.858 193.623 301.645 214.187 301.645C233.283 301.645 249.022 318.213 251.171 339.558C252.777 342.129 254.921 344.253 257.732 345.19C259.259 345.699 260.812 346.131 262.344 346.497C263.773 346.838 263.843 350.482 262.394 350.724C261.168 350.928 261.024 352.638 262.198 353.046C269.319 355.523 278.813 358.886 280.451 359.705C282.975 360.967 280.451 364.754 268.46 364.123C262.765 363.823 258.122 363.805 254.85 363.884C253.271 363.922 252.754 365.853 254.068 366.729C255.353 367.585 254.903 369.588 253.379 369.832C250.71 370.26 247.943 370.751 247.003 371.064C246.457 371.247 244.523 372.038 241.997 373.093Z"/>
</mask>
<path fill-rule="evenodd" clip-rule="evenodd" d="M241.997 373.093C235.178 381.915 225.245 387.471 214.187 387.471C193.623 387.471 176.953 368.258 176.953 344.558C176.953 320.858 193.623 301.645 214.187 301.645C233.283 301.645 249.022 318.213 251.171 339.558C252.777 342.129 254.921 344.253 257.732 345.19C259.259 345.699 260.812 346.131 262.344 346.497C263.773 346.838 263.843 350.482 262.394 350.724C261.168 350.928 261.024 352.638 262.198 353.046C269.319 355.523 278.813 358.886 280.451 359.705C282.975 360.967 280.451 364.754 268.46 364.123C262.765 363.823 258.122 363.805 254.85 363.884C253.271 363.922 252.754 365.853 254.068 366.729C255.353 367.585 254.903 369.588 253.379 369.832C250.71 370.26 247.943 370.751 247.003 371.064C246.457 371.247 244.523 372.038 241.997 373.093Z" fill="#82A6B8"/>
<path d="M241.997 373.093L240.07 368.479C239.27 368.813 238.571 369.349 238.041 370.035L241.997 373.093ZM251.171 339.558L246.196 340.059C246.273 340.823 246.524 341.558 246.931 342.209L251.171 339.558ZM257.732 345.19L256.151 349.934L256.151 349.934L257.732 345.19ZM262.344 346.497L263.504 341.633L262.344 346.497ZM262.394 350.724L263.216 355.656L263.216 355.656L262.394 350.724ZM262.198 353.046L263.84 348.323L263.84 348.323L262.198 353.046ZM280.451 359.705L278.215 364.177L278.215 364.177L280.451 359.705ZM268.46 364.123L268.197 369.116L268.46 364.123ZM254.85 363.884L254.73 358.885L254.85 363.884ZM254.068 366.729L251.295 370.889H251.295L254.068 366.729ZM253.379 369.832L252.587 364.895L252.587 364.895L253.379 369.832ZM247.003 371.064L248.585 375.808H248.585L247.003 371.064ZM238.041 370.035C232.031 377.811 223.484 382.471 214.187 382.471V392.471C227.007 392.471 238.325 386.019 245.953 376.15L238.041 370.035ZM214.187 382.471C197.028 382.471 181.953 366.187 181.953 344.558H171.953C171.953 370.33 190.219 392.471 214.187 392.471V382.471ZM181.953 344.558C181.953 322.929 197.028 306.645 214.187 306.645V296.645C190.219 296.645 171.953 318.786 171.953 344.558H181.953ZM214.187 306.645C230.14 306.645 244.242 320.652 246.196 340.059L256.146 339.058C253.802 315.775 236.427 296.645 214.187 296.645V306.645ZM259.313 340.447C257.979 340.002 256.649 338.89 255.411 336.908L246.931 342.209C248.906 345.368 251.863 348.505 256.151 349.934L259.313 340.447ZM263.504 341.633C262.093 341.297 260.683 340.903 259.313 340.447L256.151 349.934C257.835 350.495 259.53 350.966 261.184 351.36L263.504 341.633ZM263.216 355.656C265.836 355.219 267.188 353.303 267.742 352.096C268.308 350.864 268.463 349.591 268.448 348.571C268.432 347.54 268.235 346.313 267.683 345.14C267.164 344.036 265.932 342.213 263.504 341.633L261.184 351.36C259.47 350.951 258.783 349.712 258.634 349.395C258.452 349.008 258.45 348.771 258.449 348.724C258.448 348.688 258.439 348.393 258.655 347.923C258.859 347.478 259.677 346.108 261.572 345.792L263.216 355.656ZM263.84 348.323C267.54 349.61 267.118 355.006 263.216 355.656L261.572 345.792C255.219 346.851 254.509 355.665 260.555 357.768L263.84 348.323ZM282.687 355.233C281.534 354.657 278.382 353.488 275.079 352.295C271.584 351.032 267.409 349.565 263.84 348.323L260.555 357.768C264.108 359.004 268.24 360.457 271.682 361.7C273.405 362.322 274.937 362.886 276.129 363.34C276.726 363.567 277.221 363.761 277.603 363.916C277.793 363.994 277.944 364.057 278.057 364.107C278.179 364.16 278.223 364.181 278.215 364.177L282.687 355.233ZM268.197 369.116C274.51 369.448 279.298 368.706 282.359 366.977C283.772 366.178 285.909 364.521 286.285 361.671C286.734 358.271 284.432 356.105 282.687 355.233L278.215 364.177C277.732 363.936 276.06 362.716 276.371 360.362C276.61 358.557 277.84 358.044 277.438 358.271C276.87 358.592 274.401 359.428 268.723 359.129L268.197 369.116ZM254.971 368.882C258.116 368.806 262.631 368.823 268.197 369.116L268.723 359.129C262.899 358.823 258.129 358.803 254.73 358.885L254.971 368.882ZM256.842 362.569C258.025 363.358 258.585 364.886 258.199 366.305C257.803 367.758 256.477 368.846 254.971 368.882L254.73 358.885C251.645 358.96 249.27 361.032 248.55 363.679C247.839 366.292 248.797 369.224 251.295 370.889L256.842 362.569ZM254.171 374.769C260.094 373.819 261.987 365.999 256.842 362.569L251.295 370.889C248.719 369.172 249.712 365.356 252.587 364.895L254.171 374.769ZM248.585 375.808C248.567 375.814 248.711 375.769 249.11 375.68C249.469 375.6 249.928 375.507 250.468 375.405C251.548 375.201 252.857 374.98 254.171 374.769L252.587 364.895C251.231 365.113 249.822 365.351 248.616 365.578C247.534 365.782 246.268 366.039 245.422 366.321L248.585 375.808ZM243.925 377.706C245.181 377.181 246.279 376.727 247.124 376.384C247.547 376.212 247.896 376.072 248.165 375.967C248.299 375.915 248.405 375.874 248.484 375.845C248.571 375.812 248.598 375.803 248.585 375.808L245.422 366.321C244.65 366.578 242.481 367.472 240.07 368.479L243.925 377.706Z" fill="black" mask="url(#path-9-outside-1_2591_501)"/>
<ellipse cx="211.032" cy="344.558" rx="34.0783" ry="42.9134" fill="#C7EFFF"/>
<ellipse cx="196.96" cy="348.13" rx="13.5598" ry="25.7224" transform="rotate(-3.28478 196.96 348.13)" fill="black"/>
<path d="M192.527 356.586C194.076 356.641 195.225 355.393 195.93 354.033C196.675 352.599 197.144 350.668 197.219 348.574C197.293 346.48 196.961 344.521 196.321 343.038C195.713 341.632 194.656 340.305 193.106 340.25C191.557 340.195 190.408 341.443 189.702 342.803C188.958 344.237 188.488 346.168 188.414 348.262C188.34 350.356 188.672 352.315 189.312 353.798C189.92 355.204 190.977 356.531 192.527 356.586Z" fill="#1ECDFD" stroke="black" stroke-width="2"/>
<path d="M210.879 489.838L210.892 489.84C216.651 491.025 222.657 489.819 227.521 486.614C229.671 485.198 231.519 483.443 232.883 481.398C242.458 468.367 262.607 433.504 241.563 390.317C237.636 382.103 228.806 377.46 219.838 378.256L219.819 378.258L219.8 378.26C192.759 381.012 124.962 389.023 84.5236 404.733L84.4581 404.758L84.3939 404.787C83.6463 405.118 82.5976 405.603 81.7073 406.19C77.4725 408.979 75.0932 413.78 75.1106 418.838L75.1108 418.904L75.1139 418.97C75.3571 424.081 77.9722 428.694 82.3322 431.389L82.3447 431.397L82.3572 431.405C94.2859 438.618 115.285 450.875 138.826 462.493C162.321 474.088 188.546 485.146 210.879 489.838Z" fill="#FFB6E9" stroke="black" stroke-width="6"/>
<path d="M223.978 394.767C223.782 391.474 219.412 389.054 214.216 389.363C209.02 389.672 204.966 392.592 205.162 395.885C205.358 399.178 209.728 401.597 214.924 401.289C220.12 400.98 224.174 398.06 223.978 394.767Z" fill="black"/>
<mask id="path-16-outside-2_2591_501" maskUnits="userSpaceOnUse" x="242.894" y="284.016" width="135" height="154" fill="black">
<rect fill="white" x="242.894" y="284.016" width="135" height="154"/>
<path d="M372.736 360.959C372.736 400.692 344.789 432.902 310.315 432.902C275.841 432.902 247.894 400.692 247.894 360.959C247.894 321.226 275.841 289.016 310.315 289.016C344.789 289.016 372.736 321.226 372.736 360.959Z"/>
</mask>
<path d="M372.736 360.959C372.736 400.692 344.789 432.902 310.315 432.902C275.841 432.902 247.894 400.692 247.894 360.959C247.894 321.226 275.841 289.016 310.315 289.016C344.789 289.016 372.736 321.226 372.736 360.959Z" fill="#82A6B8"/>
<path d="M367.736 360.959C367.736 398.62 341.385 427.902 310.315 427.902V437.902C348.194 437.902 377.736 402.763 377.736 360.959H367.736ZM310.315 427.902C279.245 427.902 252.894 398.62 252.894 360.959H242.894C242.894 402.763 272.437 437.902 310.315 437.902V427.902ZM252.894 360.959C252.894 323.297 279.245 294.016 310.315 294.016V284.016C272.437 284.016 242.894 319.154 242.894 360.959H252.894ZM310.315 294.016C341.385 294.016 367.736 323.297 367.736 360.959H377.736C377.736 319.154 348.194 284.016 310.315 284.016V294.016Z" fill="black" mask="url(#path-16-outside-2_2591_501)"/>
<ellipse cx="305.025" cy="360.959" rx="57.1312" ry="71.943" fill="#C7EFFF"/>
<ellipse cx="277.533" cy="361.258" rx="22.7327" ry="43.1229" transform="rotate(0.341672 277.533 361.258)" fill="black"/>
<path d="M267.204 372.93C269.314 372.91 270.907 371.129 271.909 368.963C272.947 366.721 273.546 363.703 273.514 360.429C273.482 357.156 272.825 354.15 271.744 351.929C270.7 349.783 269.073 348.033 266.964 348.053C264.854 348.073 263.261 349.855 262.259 352.02C261.221 354.262 260.622 357.281 260.654 360.554C260.686 363.827 261.342 366.834 262.423 369.055C263.468 371.201 265.095 372.951 267.204 372.93Z" fill="#1ECDFD" stroke="black" stroke-width="2"/>
<g style="mix-blend-mode:multiply" filter="url(#filter0_f_2591_501)">
<circle cx="451.175" cy="477.115" r="132.115" fill="#00C2FF" fill-opacity="0.39"/>
</g>
</g>
<defs>
<filter id="filter0_f_2591_501" x="134.061" y="160" width="634.229" height="634.229" filterUnits="userSpaceOnUse" color-interpolation-filters="sRGB">
<feFlood flood-opacity="0" result="BackgroundImageFix"/>
<feBlend mode="normal" in="SourceGraphic" in2="BackgroundImageFix" result="shape"/>
<feGaussianBlur stdDeviation="92.5" result="effect1_foregroundBlur_2591_501"/>
</filter>
<clipPath id="clip0_2591_501">
<rect width="649" height="618" fill="white"/>
</clipPath>
</defs>
</svg>
